X:266
T:The Star Above The Garter
R:slide
M:12/8
L:1/8
K:Gmaj
d2B BAG ~A3 ABA|G2E c2B BAG ABc|
d2B BAG ~A3 ABA|G2E c2E D3 D3:|
|:d2e f2a g2e d2B|G2B c2B BAG ABc|
d2e f2a g2e d2B|G2B c2E D3 D3:|

